svgs/duotone/pallet-boxes.svg

<svg xmlns="http://www.w3.org/2000/svg" viewBox="0 0 640 512"><!--! Font Awesome Pro 6.0.0-alpha3 by @fontawesome - https://fontawesome.com License - https://fontawesome.com/license (Commercial License) --><defs><style>.fa-secondary{opacity:.4}</style></defs><path class="fa-primary" d="M96 255.1L288 256c17.6 0 32-14.4 32-32V31.1c0-17.6-14.4-31.1-32-31.1L96 0c-17.6 0-32 14.4-32 32V224C64 241.6 78.4 255.1 96 255.1zM416 255.1h128c17.6 0 32-14.4 32-31.1v-128c0-17.6-14.4-32-32-32h-128c-17.6 0-32 14.4-32 32v128C384 241.6 398.4 255.1 416 255.1z"/><path class="fa-secondary" d="M624 384c8.75 0 16-7.25 16-16v-32c0-8.75-7.25-16-16-16h-608C7.25 320 0 327.3 0 336v32C0 376.8 7.25 384 16 384H64v64H16C7.25 448 0 455.3 0 464v32C0 504.8 7.25 512 16 512h608c8.75 0 16-7.25 16-16v-32c0-8.75-7.25-16-16-16H576v-64H624zM288 448H128v-64h160V448zM512 448h-160v-64h160V448z"/></svg>

<svg xmlns="http://www.w3.org/2000/svg" viewBox="0 0 640 512"><!-- Font Awesome Pro 6.0.0-alpha2 by @fontawesome - https://fontawesome.com License - https://fontawesome.com/license (Commercial License) --><defs><style>.fa-secondary{opacity:.4}</style></defs><path d="M624 384C633 384 640 377 640 368V336C640 327 633 320 624 320H16C7 320 0 327 0 336V368C0 377 7 384 16 384H64V448H16C7 448 0 455 0 464V496C0 505 7 512 16 512H624C633 512 640 505 640 496V464C640 455 633 448 624 448H576V384H624ZM288 448H128V384H288V448ZM512 448H352V384H512V448Z" class="fa-secondary"/><path d="M96 256H288C306 256 320 242 320 224V32C320 14 306 0 288 0H96C78 0 64 14 64 32V224C64 242 78 256 96 256ZM416 256H544C562 256 576 242 576 224V96C576 78 562 64 544 64H416C398 64 384 78 384 96V224C384 242 398 256 416 256Z" class="fa-primary"/></svg>
